public/svg/user_stories_5.svg

<svg width="165" height="63" viewBox="0 0 165 63" fill="none" xmlns="http://www.w3.org/2000/svg">
<path d="M37.112 20.8015L36.9264 21.4191L39.6113 26.3258L40.1052 26.5115L41.0002 26.2V47H30.7602C33.8326 43.761 35.5351 39.4603 35.5121 34.9956C35.5143 32.6224 35.043 30.2725 34.1253 28.0838C35.5761 26.9735 36.0081 26.6971 37.4577 25.9238L38.1979 25.831L38.2597 25.6453L36.8089 22.9915H36.5956L36.1946 23.5473C34.952 24.3815 34.2105 24.566 32.5733 25.1834C29.4276 20.4005 23.9332 17.2837 17.7327 17.2837C14.6601 17.2683 11.6412 18.0893 9 19.6591V15H41V18.7333L37.112 20.8015ZM33.3466 35.0265C33.3466 39.8094 31.3103 44.0985 28.0133 46.9998H9V21.8808C11.5815 20.1776 14.609 19.2757 17.7019 19.2888C26.3418 19.2888 33.3466 26.3246 33.3466 35.0265ZM27.6377 30.7993C27.6377 27.3433 25.1077 25.6794 20.0771 25.6794H12.055V27.2527L13.8757 27.6537V41.5386L12.055 41.9395V43.5396H20.8807V41.9395L17.7949 41.5386V36.3844H20.0168C24.8932 36.3844 27.6377 34.4132 27.6377 30.7993ZM23.4724 30.923C23.4724 33.1138 22.299 34.4718 20.3866 34.4718H17.7947V27.5598H20.5104C22.392 27.5589 23.4724 28.7941 23.4724 30.923Z" fill="#1B2738"/>
<path d="M49.8247 28.876L51.9057 29.1224V30.0824H45.9238V29.1224L47.1259 28.8142V18.8078L45.9238 18.4995V17.5737H51.3051C54.79 17.5737 56.5168 18.7768 56.5168 21.2431C56.5168 23.7871 54.6203 25.2057 51.2593 25.2057H49.8245V28.876H49.8247ZM49.8247 24.0655H51.382C52.8465 24.0655 53.7714 23.017 53.7714 21.321C53.7714 19.6868 52.9234 18.7152 51.4737 18.7152H49.8247V24.0655Z" fill="#1B2738"/>
<path d="M68.9976 29.1223V30.0823H65.6216L61.9832 25.3911H61.4126V28.8141L62.6146 29.1223V30.0823H57.5117V29.1223L58.7138 28.8141V20.5187L57.5724 20.2105V19.2856H63.1863C65.5755 19.2856 67.18 20.442 67.18 22.1657C67.18 24.0771 65.869 24.939 64.6818 25.2494L67.7506 28.8419L68.9976 29.1223ZM61.4126 24.2498H62.4301C63.741 24.2498 64.4344 23.5255 64.4344 22.2295C64.4344 21.0114 63.7869 20.4259 62.4301 20.4259H61.4126V24.2498Z" fill="#1B2738"/>
<path d="M68.6016 24.6819C68.6016 21.3209 70.8414 19.0542 74.4446 19.0542C78.0478 19.0542 80.2878 21.3209 80.2878 24.6819C80.2878 28.0431 78.0478 30.3097 74.4446 30.3097C70.8414 30.3097 68.6016 28.059 68.6016 24.6819ZM77.4548 24.6819C77.4548 22.477 76.7145 20.3182 74.4478 20.3182C72.1812 20.3182 71.4378 22.4772 71.4378 24.6819C71.4378 26.8867 72.1781 29.0457 74.4448 29.0457C76.7114 29.0457 77.4517 26.8867 77.4517 24.6819H77.4548Z" fill="#1B2738"/>
<path d="M84.9174 28.876L86.9985 29.1224V30.0824H81.0166V29.1224L82.2188 28.8142V18.8078L81.0166 18.4995V17.5737H86.3981C89.8829 17.5737 91.6097 18.7768 91.6097 21.2431C91.6097 23.7871 89.7132 25.2057 86.3522 25.2057H84.9174V28.876ZM84.9174 24.0655H86.4748C87.9395 24.0655 88.8643 23.017 88.8643 21.321C88.8643 19.6868 88.0161 18.7152 86.5667 18.7152H84.9174V24.0655Z" fill="#1B2738"/>
<path d="M104.074 20.2102L102.948 20.5184V25.8997C102.948 28.8287 101.176 30.3094 98.384 30.3094C95.2853 30.3094 93.6662 28.5205 93.6662 25.761V20.5184L92.541 20.2102V19.2853H97.5542V20.2102L96.398 20.5184V26.065C96.398 27.7151 97.3845 28.8095 99.0038 28.8095C100.561 28.8095 101.564 27.792 101.564 26.2345V20.5182L100.407 20.21V19.2852H104.077L104.074 20.2102Z" fill="#1B2738"/>
<path d="M115.487 27.0873C115.487 29.1076 113.868 30.074 110.474 30.074H104.957V29.114L106.221 28.8056V20.5187L105.107 20.2105V19.2856H110.547C113.415 19.2856 114.987 20.1498 114.987 21.9524C114.987 23.3551 114.062 24.0184 112.505 24.2031V24.2649C114.455 24.4815 115.487 25.468 115.487 27.0873ZM108.919 23.9266H110.226C111.613 23.9266 112.277 23.2942 112.277 22.1538C112.277 20.9666 111.567 20.4269 110.226 20.4269H108.919V23.9266ZM112.743 26.9795C112.743 25.6995 111.878 25.0061 110.183 25.0061H108.919V28.9378H110.43C111.895 28.9369 112.743 28.2435 112.743 26.9795Z" fill="#1B2738"/>
<path d="M126.034 26.2701L125.032 30.0782H116.227V29.1181L117.431 28.8098V20.5187L116.15 20.2105V19.2856H121.331V20.2105L120.129 20.5187V28.9367L123.351 28.7522L125.109 25.9616L126.034 26.2701Z" fill="#1B2738"/>
<path d="M131.578 29.1223V30.0823H126.476V29.1223L127.678 28.8141V20.5187L126.476 20.2105V19.2856H131.578V20.2105L130.376 20.5187V28.8141L131.578 29.1223Z" fill="#1B2738"/>
<path d="M132.1 24.713C132.1 21.1054 134.859 19.0596 138.251 19.0596C139.719 19.067 141.156 19.4725 142.411 20.233L141.948 23.2398H140.988L140.603 21.1738C140.048 20.5411 139.2 20.233 138.306 20.233C136.225 20.233 134.959 21.7263 134.959 24.3802C134.959 27.3869 136.517 28.7748 138.428 28.7748C139.831 28.7748 140.757 28.0036 141.481 26.6009L142.453 27.0478C141.481 29.3144 139.801 30.3162 137.653 30.3162C134.459 30.3098 132.1 28.0591 132.1 24.713Z" fill="#1B2738"/>
<path d="M154.02 29.1224V30.0825H148.841V29.1224L150.105 28.8601L149.457 27.0095H145.68L144.971 28.8752L146.204 29.1377L146.188 30.0977L142.426 30.0817V29.1217L143.397 28.8754L146.789 20.3805L145.88 20.0872V19.2861H148.994L152.894 28.8605L154.02 29.1224ZM147.745 22.0611L147.639 21.7069L147.532 22.0611L146.113 25.8691H149.054L147.745 22.0611Z" fill="#1B2738"/>
<path d="M47.0908 34.5562H48.9275V44.3546H47.0908V34.5562Z" fill="#1B2738"/>
<path d="M52.1582 34.5562H53.9811V42.9017H58.1602V44.3546H52.1582V34.5562Z" fill="#1B2738"/>
<path d="M60.5137 34.5562H62.3324V42.9017H66.5117V44.3546H60.5137V34.5562Z" fill="#1B2738"/>
<path d="M68.8936 34.5562H70.7302V44.3546H68.8936V34.5562Z" fill="#1B2738"/>
<path d="M73.9601 34.5562H76.1392L80.264 41.6409V34.5562H81.9226V44.3546H80.0325L75.6195 36.8453V44.3546H73.96V34.5562H73.9601Z" fill="#1B2738"/>
<path d="M84.6543 39.5172V39.4106C84.6543 36.5465 86.7098 34.4229 89.6154 34.4229C92.5209 34.4229 94.5464 36.4879 94.5464 39.3658V39.4724C94.5464 42.3366 92.587 44.4858 89.6132 44.4858C86.6137 44.4912 84.6543 42.3398 84.6543 39.5172ZM92.6543 39.4897V39.3829C92.6543 37.3691 91.53 35.8745 89.6123 35.8745C87.6945 35.8745 86.5562 37.2857 86.5562 39.3945V39.5013C86.5562 41.6347 87.8578 43.0212 89.6401 43.0212C91.4929 43.0254 92.6576 41.6133 92.6576 39.4897H92.6543Z" fill="#1B2738"/>
<path d="M97.3037 34.5562H99.1406V44.3546H97.3037V34.5562Z" fill="#1B2738"/>
<path d="M101.82 41.3125H103.574C103.698 42.2991 104.094 43.1259 105.753 43.1259C106.836 43.1259 107.603 42.5232 107.603 41.6188C107.603 40.7143 107.15 40.3718 105.561 40.1117C103.214 39.7916 102.107 39.0833 102.107 37.2476C102.107 35.6476 103.478 34.438 105.52 34.438C107.63 34.438 108.891 35.398 109.083 37.2742H107.412C107.233 36.2458 106.645 35.8075 105.52 35.8075C104.396 35.8075 103.835 36.3408 103.835 37.096C103.835 37.8907 104.163 38.2884 105.862 38.535C108.163 38.8551 109.356 39.5077 109.356 41.4673C109.356 43.1665 107.917 44.4955 105.752 44.4955C103.08 44.4911 101.958 43.1598 101.82 41.3125Z" fill="#1B2738"/>
</svg>

<svg xmlns="http://www.w3.org/2000/svg" width="165" height="63" fill="#1b2738"  xmlns:v="https://vecta.io/nano"><path d="M37.112 20.802l-.186.618 2.685 4.907.494.186L41 26.2V47H30.76c3.072-3.239 4.775-7.54 4.752-12.004a17.83 17.83 0 0 0-1.387-6.912c1.451-1.11 1.883-1.387 3.332-2.16l.74-.093.062-.186-1.451-2.654h-.213l-.401.556c-1.243.834-1.984 1.019-3.621 1.636-3.146-4.783-8.64-7.9-14.841-7.9-3.073-.015-6.092.806-8.733 2.375V15h32v3.733l-3.888 2.068zm-3.765 14.225c0 4.783-2.036 9.072-5.333 11.973H9V21.881a15.68 15.68 0 0 1 8.702-2.592c8.64 0 15.645 7.036 15.645 15.738zM27.638 30.8c0-3.456-2.53-5.12-7.561-5.12h-8.022v1.573l1.821.401v13.885l-1.821.401v1.6h8.826v-1.6l-3.086-.401v-5.154h2.222c4.876 0 7.621-1.971 7.621-5.585zm-4.165.124c0 2.191-1.173 3.549-3.086 3.549h-2.592V27.56h2.716c1.882-.001 2.962 1.234 2.962 3.363zm26.352-2.048l2.081.246v.96h-5.982v-.96l1.202-.308V18.808l-1.202-.308v-.926h5.381c3.485 0 5.212 1.203 5.212 3.669 0 2.544-1.897 3.963-5.257 3.963h-1.435v3.67zm0-4.811h1.557c1.465 0 2.389-1.049 2.389-2.744 0-1.634-.848-2.606-2.298-2.606h-1.649v5.35zm19.173 5.057v.96h-3.376l-3.638-4.691h-.571v3.423l1.202.308v.96h-5.103v-.96l1.202-.308v-8.295l-1.141-.308v-.925h5.614c2.389 0 3.994 1.156 3.994 2.88 0 1.911-1.311 2.773-2.498 3.084l3.069 3.592 1.247.28zm-7.585-4.872h1.018c1.311 0 2.004-.724 2.004-2.02 0-1.218-.647-1.804-2.004-1.804h-1.018v3.824zm7.189.432c0-3.361 2.24-5.628 5.843-5.628s5.843 2.267 5.843 5.628-2.24 5.628-5.843 5.628-5.843-2.251-5.843-5.628zm8.853 0c0-2.205-.74-4.364-3.007-4.364s-3.01 2.159-3.01 4.364.74 4.364 3.007 4.364 3.007-2.159 3.007-4.364h.003zm7.462 4.194l2.081.246v.96h-5.982v-.96l1.202-.308V18.808l-1.202-.308v-.926h5.382c3.485 0 5.212 1.203 5.212 3.669 0 2.544-1.897 3.963-5.258 3.963h-1.435v3.67zm0-4.811h1.557c1.465 0 2.389-1.049 2.389-2.744 0-1.634-.848-2.606-2.298-2.606h-1.649v5.35zm19.157-3.855l-1.126.308V25.9c0 2.929-1.772 4.41-4.564 4.41-3.099 0-4.718-1.789-4.718-4.548v-5.243l-1.125-.308v-.925h5.013v.925l-1.156.308v5.547c0 1.65.987 2.744 2.606 2.744 1.557 0 2.56-1.017 2.56-2.575v-5.716l-1.157-.308v-.925h3.67l-.003.925zm11.413 6.877c0 2.02-1.619 2.987-5.013 2.987h-5.517v-.96l1.264-.308v-8.287l-1.114-.308v-.925h5.44c2.868 0 4.44.864 4.44 2.667 0 1.403-.925 2.066-2.482 2.251v.062c1.95.217 2.982 1.203 2.982 2.822zm-6.568-3.161h1.307c1.387 0 2.051-.632 2.051-1.773 0-1.187-.71-1.727-2.051-1.727h-1.307v3.5zm3.824 3.053c0-1.28-.865-1.973-2.56-1.973h-1.264v3.932h1.511c1.465-.001 2.313-.694 2.313-1.958zm13.291-.709l-1.002 3.808h-8.805v-.96l1.204-.308v-8.291l-1.281-.308v-.925h5.181v.925l-1.202.308v8.418l3.222-.184 1.758-2.791.925.308zm5.544 2.852v.96h-5.102v-.96l1.202-.308v-8.295l-1.202-.308v-.925h5.102v.925l-1.202.308v8.295l1.202.308zm.522-4.409c0-3.608 2.759-5.653 6.151-5.653 1.468.007 2.905.413 4.16 1.173l-.463 3.007h-.96l-.385-2.066c-.555-.633-1.403-.941-2.297-.941-2.081 0-3.347 1.493-3.347 4.147 0 3.007 1.558 4.395 3.469 4.395 1.403 0 2.329-.771 3.053-2.174l.972.447c-.972 2.267-2.652 3.268-4.8 3.268-3.194-.006-5.553-2.257-5.553-5.603zm21.92 4.409v.96h-5.179v-.96l1.264-.262-.648-1.851h-3.777l-.709 1.866 1.233.262-.016.96-3.762-.016v-.96l.971-.246 3.392-8.495-.909-.293v-.801h3.114l3.9 9.574 1.126.262zm-6.275-7.061l-.106-.354-.107.354-1.419 3.808h2.941l-1.309-3.808zM47.091 34.556h1.837v9.798h-1.837v-9.798zm5.067 0h1.823v8.346h4.179v1.453h-6.002v-9.798zm8.356 0h1.819v8.346h4.179v1.453h-5.998v-9.798zm8.38 0h1.837v9.798h-1.837v-9.798zm5.066 0h2.179l4.125 7.085v-7.085h1.659v9.798h-1.89l-4.413-7.509v7.509h-1.66v-9.798zm10.694 4.961v-.107c0-2.864 2.055-4.988 4.961-4.988s4.931 2.065 4.931 4.943v.107c0 2.864-1.959 5.013-4.933 5.013-3 .005-4.959-2.146-4.959-4.969zm8-.028v-.107c0-2.014-1.124-3.508-3.042-3.508s-3.056 1.411-3.056 3.52v.107c0 2.133 1.302 3.52 3.084 3.52 1.853.004 3.017-1.408 3.017-3.532h-.003zm4.65-4.933h1.837v9.798h-1.837v-9.798zm4.516 6.757h1.754c.124.987.52 1.813 2.179 1.813 1.083 0 1.85-.603 1.85-1.507s-.453-1.247-2.042-1.507c-2.347-.32-3.454-1.028-3.454-2.864 0-1.6 1.371-2.81 3.413-2.81 2.11 0 3.371.96 3.563 2.836h-1.671c-.179-1.028-.767-1.467-1.892-1.467s-1.685.533-1.685 1.288c0 .795.328 1.192 2.027 1.439 2.301.32 3.494.973 3.494 2.932 0 1.699-1.439 3.028-3.604 3.028-2.672-.004-3.794-1.336-3.932-3.183z"/></svg>
